X:17444
T:THUNDERHEAD
M:6/8
L:1/8
C:Grey Larsen
S:Grey Larsen, Kevin Burke, Michael O'Domhnaill and Triona Ni Dhomhnaill.
K:G
|dGG AGE|DEG ~F3|EFF EFF|GFE ~F3|dGG AGE|!
DEG FGA||1BdB ceg|f/2g/2af gfe:|2Bde fgf|edB AGA||!
M:7/8 |:dGG AG GE|DEG F2 F2|EFF EF F2|GFE F4|dGG AG GE|!
DEG F2 GA||1 BdB ce g|f/2g/2afg2 f3:|2 Bde fg ge|edB AG GA||B7!
